X:1
T:Magne Ioseph
T:Text from: Officium Parvum de Sancto Ioseph Coeleste Palmetum, 1741
T:Magne Ioseph
C:Text from: Officium Parvum de Sancto Ioseph
C:Coeleste Palmetum, 1741
%%score { ( 1 2 ) | ( 3 4 ) }
L:1/8
Q:1/4=120
M:4/4
K:D
V:1 treble nm="P1"
V:2 treble 
V:3 bass 
V:4 bass 
V:1
!f!"^Allegro moderato" d2 cB A2 B2 | E2 AG F E D2 | A2 B2 ^G2 AB | c2 B2 A4 | d2 c B A2 B2 | %5
w: 1. gne _ Jo- seph,|fi- li * Da- * vid,|cus- tos da- te *|Vir- gi- nis,|1. et * Vir- go|
w: 2. fe- * ren- tem|cas- tam * Mat- * rem,|con- spe- xis- ses *|u- te- rum,|2. ne- * sci- res|
w: 3. in _ Beth- lehem|pro- fec- * tu- * rus,|per- ge- res cum *|Vir- gi- ne,|3. us * no- bis|
w: 4. He- * ro- dis|e- va- * si- * sti,|mo- ni- tus ab *|An- ge- lo,|4. Ae- * gyp- tum|
w: 5. Ae- * gyp- to|cum de- * fes- * sus,|Ga- li- lae- am *|pe- te- res,|5. in * Na- za-|
 E2 AG FE D2 | A2 B2 ^G2 AB | c2 B2 A4 |!p! A2 B c d2 c2 | Bd cB ^A2 F2 | B2 c2 d2 c2 | B2 ^A2 B4 | %12
w: nun- cu- * pa- * vit|pat- trem Chri- sti _|Do- mi- ni;|1. fi- * de- lis|ser- * vus _ De- i|da- tus es Fa-|mi- li- ae,|
w: ta- men _ Pat- * rem,|cor ge- re- bas _|an- xi- um;|2. de _ coe- lo|mox _ in- * struc- tus,|po- su- is- ti|du- bi- um.|
w: par fu- * tu- * rus,|na- tus est in _|tem- po- re.|3. in _ fae- no|col- * lo- * ca- tum,|co- lu- is- ti|gra- vi- ter:|
w: cum du- * xi- * sti|Vir- gi- nem cum _|par- vu- lo.|4. moe- * ro- rem,|quem _ tu- * li- sti,|is- to in e-|xi- li- o,|
w: reth di- * gres- * sus,|ut se- cu- rus _|de- ge- res.|5. flo- * ren- tis|hor- * tum _ men- tis,|a- mas Ie- sum|du- ce- re:|
!f! d2 c B A2 B2 | A2 G2 F2 E2 | A2 d2 [Be]2 e127/64 | d2 c2 !fermata!d4 |] %16
w: 1. cor _ ve- lis|cu- ram me- i|tam- quam Pa- ter|ge- re- re.|
w: 2. ut _ om- nis|me- us luc- tus|tran- se- at in|gau- di- um.|
w: 3. in _ coe- lo|e- le- va- tum:|o- ra pro me|iu- gi- ter.|
w: 4. gra- * va- bor|ho- ra tri- stis|mi- hi sis au-|xi- li- o.|
w: 5. flo- * res- cat|et mi- tes- cat,|hor- tus me- ae|a- ni- mae.|
V:2
 F2 G2 F2 D2 | D2 C2 D C D2 | E2 F2 E2 E2 | E2 ED C4 | F2 [GD]2 D127/64 D2 | D2 C2 DC D2 | %6
 E2 D2 D2 CF | E2 E D C4 | D2 G2 F2 E2 | D2 G2 F2 F2 | F2 F2 F2 G2 | F2 F2 F4 | FB A G D2 D2 | %13
 D2 DE D2 C2 | D2 F2 [DG]2 G127/64 | F2 EG F4 |] %16
V:3
 A,2 B,C D2 B,2 | A,2 A,2 A, G, F,2 | A,2 D2 B,2 A,^G, | A,2 ^G,2 A,4 | A,2 [G,A,]2 A,127/64 F,2 | %5
w: |||||
w: |||||
w: |||||
w: |||||
w: |||||
w: |||||
w: 6. do- * le- bas,|cum quae- re- * bas,|du- o- den- nem *|Ie- su- lum!|6. in- ven- tus|
 ^G,2 A,2 A,=G, F,2 | A,2 F,2 B,2 A,2 | A,F, ^G,2 A,4 | A,2 G,2 A,2 ^A,2 | B,2 E D C2 ^A,2 | %10
w: |||||
w: |||||
w: |||||
w: |||||
w: |||||
w: |* * * li||||
w: et re- ten- * tus,|au- xit il- *|gau- * di- um.|6. su, Lu- men|o- cu- * lo- rum,|
 F2 E2 D2 E2 | D2 C2 D4 | D2 E2 FE D2 | A,2 B,2 A,2 A,2 | A,2 A,2 [G,B,]2 B,127/64 | A,2 A,2 A,4 |] %16
w: ||||||
w: ||||||
w: ||||||
w: ||||||
w: ||||||
w: ||||||
w: fac me num- quam|per- de- re:|6. per pu- * ri-|ta- te mo- rum,|men- ti ad- sit|in- teg- rae.|
V:4
 D,2 D,2 D,2 G,2 | A,2 A,,2 D,2 D,2 | C,2 B,,2 E, D, C,B,, | A,,2 E,2 A,4 | %4
 D,2 [E,F,]2 F,127/64 B,,2 | E,2 A,,2 D,2 D,2 | C,2 D,2 E,2 F,D, | E,2 E,2 A,,4 | F,2 E,2 D,2 F,2 | %9
 G,2 E,2 F,2 F,2 | D,2 ^A,,2 B,,2 E,2 | F,2 F,2 B,4 | B,,2 C,2 D,2 G,2 | F,2 B,,C, D,2 A,2 | %14
 F,2 D,2 G, F, E,2 | A,2 A,,2 !fermata!D,4 |] %16

